app/src/assets/image/logos/github.svg

<?xml version="1.0" encoding="UTF-8" standalone="no"?>
<svg width="512px" height="139px" viewBox="0 0 512 139" version="1.1" xmlns="http://www.w3.org/2000/svg" xmlns:xlink="http://www.w3.org/1999/xlink" preserveAspectRatio="xMidYMid">
    <g>
        <path d="M98.6961598,59.3124474 L55.6354962,59.3124474 C54.5247282,59.3124474 53.623096,60.2151464 53.623096,61.3259144 L53.623096,82.3792882 C53.623096,83.4900562 54.5247282,84.3938224 55.6354962,84.3938224 L72.4335936,84.3938224 L72.4335936,110.550753 C72.4335936,110.550753 68.6616775,111.836513 58.2336902,111.836513 C45.930948,111.836513 28.744455,107.341157 28.744455,69.5494382 C28.744455,31.7491835 46.6405165,26.7758029 63.4418154,26.7758029 C77.9852995,26.7758029 84.2508415,29.336651 88.2372288,30.5701264 C89.4899103,30.9542537 90.648694,29.706907 90.648694,28.5950722 L95.4524188,8.25340062 C95.4524188,7.73376182 95.2763603,7.10742103 94.6830971,6.68167999 C93.0644278,5.52716422 83.1870225,-1.42108547e-14 58.2336902,-1.42108547e-14 C29.487101,-1.42108547e-14 0,12.2301846 0,71.022993 C0,129.817935 33.7605165,138.579238 62.2094068,138.579238 C85.7649432,138.579238 100.054476,128.51297 100.054476,128.51297 C100.643471,128.187529 100.707493,127.364856 100.707493,126.987131 L100.707493,61.3259144 C100.707493,60.2151464 99.8069278,59.3124474 98.6961598,59.3124474 Z M320.495497,7.35923776 C320.495497,6.23886664 319.607737,5.33510059 318.496969,5.33510059 L294.251072,5.33510059 C293.143503,5.33510059 292.24294,6.23886664 292.24294,7.35923776 C292.24294,7.36457288 292.24934,54.215292 292.24934,54.215292 L254.456556,54.215292 L254.456556,7.35923776 C254.456556,6.23886664 253.564526,5.33510059 252.455893,5.33510059 L228.211061,5.33510059 C227.107764,5.33510059 226.208265,6.23886664 226.208265,7.35923776 L226.208265,134.231131 C226.208265,135.350435 227.107764,136.26167 228.211061,136.26167 L252.455893,136.26167 C253.564526,136.26167 254.456556,135.350435 254.456556,134.231131 L254.456556,79.9635547 L292.24934,79.9635547 C292.24934,79.9635547 292.183187,134.226863 292.183187,134.231131 C292.183187,135.350435 293.082684,136.26167 294.191317,136.26167 L318.494835,136.26167 C319.605604,136.26167 320.493364,135.350435 320.495497,134.231131 L320.495497,7.35923776 Z M144.371023,24.3216565 C144.371023,15.591298 137.371371,8.53616094 128.735977,8.53616094 C120.10912,8.53616094 113.104133,15.591298 113.104133,24.3216565 C113.104133,33.042412 120.10912,40.1167554 128.735977,40.1167554 C137.371371,40.1167554 144.371023,33.042412 144.371023,24.3216565 Z M142.447186,107.534288 L142.447186,48.9698214 C142.447186,47.8579864 141.549822,46.9488852 140.441188,46.9488852 L116.272115,46.9488852 C115.163481,46.9488852 114.171153,48.0927309 114.171153,49.2045657 L114.171153,133.109693 C114.171153,135.575576 115.707662,136.308619 117.696587,136.308619 L139.472334,136.308619 C141.861392,136.308619 142.447186,135.135964 142.447186,133.070213 L142.447186,107.534288 Z M413.161929,46.9488852 L389.10169,46.9488852 C387.998389,46.9488852 387.099963,47.8579864 387.099963,48.9772906 L387.099963,111.186697 C387.099963,111.186697 380.988068,115.658579 372.312128,115.658579 C363.637256,115.658579 361.334627,111.722341 361.334627,103.227794 L361.334627,48.9772906 C361.334627,47.8579864 360.43833,46.9488852 359.333962,46.9488852 L334.915206,46.9488852 C333.812978,46.9488852 332.910277,47.8579864 332.910277,48.9772906 L332.910277,107.335822 C332.910277,132.566579 346.972537,138.739291 366.317608,138.739291 C382.1874,138.739291 394.983106,129.971587 394.983106,129.971587 C394.983106,129.971587 395.592374,134.591784 395.867664,135.140232 C396.144024,135.686546 396.862125,136.238196 397.63785,136.238196 L413.172597,136.169906 C414.274829,136.169906 415.177528,135.258671 415.177528,134.144702 L415.170059,48.9772906 C415.170059,47.8579864 414.27056,46.9488852 413.161929,46.9488852 Z M468.596822,115.706595 C460.251661,115.452644 454.591116,111.665789 454.591116,111.665789 L454.591116,71.4882139 C454.591116,71.4882139 460.175898,68.0652134 467.027235,67.4527437 C475.691441,66.6770202 484.039804,69.2944203 484.039804,89.9626002 C484.039804,111.757553 480.272156,116.058711 468.596822,115.706595 Z M478.086899,44.2237159 C464.421573,44.2237159 455.12676,50.3206689 455.12676,50.3206689 L455.12676,7.35923776 C455.12676,6.23886664 454.231532,5.33510059 453.126097,5.33510059 L428.811913,5.33510059 C427.706479,5.33510059 426.808048,6.23886664 426.808048,7.35923776 L426.808048,134.231131 C426.808048,135.350435 427.706479,136.26167 428.815112,136.26167 L445.684702,136.26167 C446.444417,136.26167 447.019542,135.870074 447.444215,135.18398 C447.863555,134.502154 448.468557,129.334575 448.468557,129.334575 C448.468557,129.334575 458.41105,138.756363 477.232216,138.756363 C499.328069,138.756363 512,127.548384 512,88.4410293 C512,49.3336752 491.761829,44.2237159 478.086899,44.2237159 Z M212.229235,46.731213 L194.041876,46.731213 C194.041876,46.731213 194.014134,22.7093892 194.014134,22.704054 C194.014134,21.7949529 193.545712,21.3404024 192.494697,21.3404024 L167.709954,21.3404024 C166.746435,21.3404024 166.22893,21.7640094 166.22893,22.6901829 L166.22893,47.5197408 C166.22893,47.5197408 153.808816,50.5180675 152.969071,50.760281 C152.132527,51.0024947 151.516857,51.77395 151.516857,52.6937215 L151.516857,68.2967567 C151.516857,69.4192619 152.413154,70.3240948 153.521788,70.3240948 L166.22893,70.3240948 L166.22893,107.859729 C166.22893,135.739897 185.785275,138.478938 198.98218,138.478938 C205.011911,138.478938 212.224966,136.542296 213.41576,136.102684 C214.135999,135.838063 214.554271,135.092216 214.554271,134.283415 L214.574544,117.119329 C214.574544,116.000025 213.629165,115.094125 212.564279,115.094125 C211.504728,115.094125 208.79343,115.525201 206.002106,115.525201 C197.069013,115.525201 194.041876,111.371292 194.041876,105.994577 C194.041876,100.622131 194.04081,70.3240948 194.04081,70.3240948 L212.229235,70.3240948 C213.337868,70.3240948 214.235233,69.4192619 214.235233,68.2967567 L214.235233,48.7532162 C214.235233,47.633912 213.337868,46.731213 212.229235,46.731213 Z" fill="#11110F"></path>
    </g>
</svg>

<svg width="512" height="139" viewBox="0 0 512 139" xmlns="http://www.w3.org/2000/svg" preserveAspectRatio="xMidYMid"><path d="M98.696 59.312h-43.06a2.015 2.015 0 0 0-2.013 2.014v21.053c0 1.111.902 2.015 2.012 2.015h16.799v26.157s-3.772 1.286-14.2 1.286c-12.303 0-29.49-4.496-29.49-42.288 0-37.8 17.897-42.773 34.698-42.773 14.543 0 20.809 2.56 24.795 3.794 1.253.384 2.412-.863 2.412-1.975l4.803-20.342c0-.52-.176-1.146-.769-1.571C93.064 5.527 83.187 0 58.233 0 29.488 0 0 12.23 0 71.023c0 58.795 33.76 67.556 62.21 67.556 23.555 0 37.844-10.066 37.844-10.066.59-.325.653-1.148.653-1.526V61.326c0-1.11-.9-2.014-2.01-2.014zm221.8-51.953c0-1.12-.888-2.024-1.999-2.024h-24.246a2.016 2.016 0 0 0-2.008 2.024l.006 46.856h-37.792V7.36c0-1.12-.892-2.024-2.001-2.024H228.21a2.014 2.014 0 0 0-2.003 2.024v126.872c0 1.12.9 2.03 2.003 2.03h24.245c1.109 0 2-.91 2-2.03V79.964h37.793l-.066 54.267c0 1.12.9 2.03 2.008 2.03h24.304c1.11 0 1.998-.91 2-2.03V7.36zM144.37 24.322c0-8.73-7-15.786-15.635-15.786-8.627 0-15.632 7.055-15.632 15.786 0 8.72 7.005 15.795 15.632 15.795 8.635 0 15.635-7.075 15.635-15.795zm-1.924 83.212V48.97a2.015 2.015 0 0 0-2.006-2.021h-24.169c-1.109 0-2.1 1.144-2.1 2.256v83.905c0 2.466 1.536 3.199 3.525 3.199h21.775c2.39 0 2.975-1.173 2.975-3.239v-25.536zM413.162 46.95h-24.06c-1.104 0-2.002.909-2.002 2.028v62.21s-6.112 4.472-14.788 4.472c-8.675 0-10.977-3.937-10.977-12.431v-54.25c0-1.12-.897-2.03-2.001-2.03h-24.419c-1.102 0-2.005.91-2.005 2.03v58.358c0 25.23 14.063 31.403 33.408 31.403 15.87 0 28.665-8.767 28.665-8.767s.61 4.62.885 5.168c.276.547.994 1.098 1.77 1.098l15.535-.068c1.102 0 2.005-.911 2.005-2.025l-.008-85.168a2.02 2.02 0 0 0-2.008-2.028zm55.435 68.758c-8.345-.254-14.006-4.041-14.006-4.041V71.488s5.585-3.423 12.436-4.035c8.664-.776 17.013 1.841 17.013 22.51 0 21.795-3.768 26.096-15.443 25.744zm9.49-71.483c-13.665 0-22.96 6.097-22.96 6.097V7.359a2.01 2.01 0 0 0-2-2.024h-24.315a2.013 2.013 0 0 0-2.004 2.024v126.872c0 1.12.898 2.03 2.007 2.03h16.87c.76 0 1.335-.39 1.76-1.077.419-.682 1.024-5.85 1.024-5.85s9.942 9.422 28.763 9.422c22.096 0 34.768-11.208 34.768-50.315s-20.238-44.217-33.913-44.217zM212.229 46.73h-18.187l-.028-24.027c0-.909-.468-1.364-1.52-1.364H167.71c-.964 0-1.481.424-1.481 1.35v24.83s-12.42 2.998-13.26 3.24a2.013 2.013 0 0 0-1.452 1.934v15.603c0 1.122.896 2.027 2.005 2.027h12.707v37.536c0 27.88 19.556 30.619 32.753 30.619 6.03 0 13.243-1.937 14.434-2.376.72-.265 1.138-1.01 1.138-1.82l.02-17.164c0-1.119-.945-2.025-2.01-2.025-1.06 0-3.77.431-6.562.431-8.933 0-11.96-4.154-11.96-9.53l-.001-35.67h18.188a2.014 2.014 0 0 0 2.006-2.028V48.753c0-1.12-.897-2.022-2.006-2.022z" fill="#11110F"/></svg>
